docs/img/noun-food-and-drink-5581012.svg

<svg xmlns="http://www.w3.org/2000/svg" xmlns:xlink="http://www.w3.org/1999/xlink" xmlns:serif="http://www.serif.com/" viewBox="0 0 24 30" version="1.1" xml:space="preserve" style="" x="0px" y="0px" fill-rule="evenodd" clip-rule="evenodd" stroke-linejoin="round" stroke-miterlimit="2">
<g>
<path d="M9.174,19.771c0,-0.378 0.132,-0.738 0.355,-1.005c0.267,-0.321 0.636,-0.487 1.014,-0.487l9.905,-0c0.378,-0 0.747,0.166 1.014,0.487c0.223,0.267 0.355,0.627 0.355,1.005l-0,0.743c-0,0.575 -0.198,1.124 -0.537,1.531c-0.383,0.46 -0.909,0.705 -1.451,0.705l-8.667,-0c-0.542,0 -1.068,-0.245 -1.451,-0.705c-0.339,-0.407 -0.537,-0.956 -0.537,-1.531l0,-0.743Zm1.5,0.008l0,0.735c0,0.213 0.063,0.42 0.189,0.571c0.081,0.097 0.184,0.165 0.299,0.165l8.667,-0c0.115,0 0.218,-0.068 0.299,-0.165c0.126,-0.151 0.189,-0.358 0.189,-0.571l-0,-0.735l-9.643,-0Z"/><path d="M9.603,16.35l-0,-0.55c-0,-1.078 0.442,-2.112 1.234,-2.874c0.781,-0.752 1.84,-1.176 2.945,-1.176l3.428,0c1.105,-0 2.163,0.424 2.945,1.176c0.791,0.762 1.234,1.796 1.234,2.874l-0,0.55c-0,0.348 -0.142,0.683 -0.398,0.929c-0.245,0.236 -0.577,0.371 -0.924,0.371l-9.143,-0c-0.347,0 -0.678,-0.135 -0.924,-0.371c-0.256,-0.246 -0.397,-0.581 -0.397,-0.929Zm1.5,-0.2l8.786,-0l-0,-0.35c-0,-0.673 -0.28,-1.317 -0.775,-1.793c-0.504,-0.486 -1.19,-0.757 -1.904,-0.757l-3.428,0c-0.714,-0 -1.4,0.271 -1.905,0.757c-0.494,0.476 -0.774,1.12 -0.774,1.793l-0,0.35Z"/><path d="M7.5,21.25c0.414,0 0.75,0.336 0.75,0.75c-0,0.414 -0.336,0.75 -0.75,0.75l-2.237,-0c-1.283,0 -2.386,-1.045 -2.502,-2.452l-1.001,-12.121c-0.061,-0.741 0.168,-1.475 0.624,-2.024c0.481,-0.58 1.165,-0.903 1.878,-0.903l8.476,0c0.713,0 1.397,0.323 1.878,0.903c0.456,0.549 0.685,1.283 0.624,2.024l-0.155,1.885c-0.035,0.412 -0.397,0.72 -0.81,0.685c-0.412,-0.034 -0.719,-0.396 -0.685,-0.809l0.155,-1.885c0.029,-0.344 -0.071,-0.687 -0.283,-0.942c-0.187,-0.225 -0.447,-0.361 -0.724,-0.361l-8.476,0c-0.277,0 -0.537,0.136 -0.724,0.361c-0.212,0.255 -0.312,0.598 -0.283,0.942l1.001,12.122c0.049,0.591 0.468,1.075 1.007,1.075l2.237,-0Z"/><path d="M8.75,6c0,0.414 -0.336,0.75 -0.75,0.75c-0.414,0 -0.75,-0.336 -0.75,-0.75l-0,-2.323c-0,-0.102 -0.062,-0.194 -0.157,-0.232l-1.872,-0.749c-0.384,-0.153 -0.571,-0.59 -0.417,-0.975c0.153,-0.384 0.59,-0.571 0.975,-0.417l1.871,0.748c0.664,0.266 1.1,0.909 1.1,1.625l-0,2.323Z"/><path d="M21.5,16.15c0.414,-0 0.75,0.336 0.75,0.75c0,0.414 -0.336,0.75 -0.75,0.75l-12,-0c-0.414,-0 -0.75,-0.336 -0.75,-0.75c0,-0.414 0.336,-0.75 0.75,-0.75l12,-0Z"/></g></svg>

<?xml version="1.0" encoding="UTF-8" standalone="no"?>
<svg
   viewBox="0 0 30 30"
   version="1.1"
   xml:space="preserve"
   x="0px"
   y="0px"
   fill-rule="evenodd"
   clip-rule="evenodd"
   stroke-linejoin="round"
   stroke-miterlimit="2"
   id="svg5"
   sodipodi:docname="noun-food-and-drink-5581012.svg"
   width="30"
   height="30"
   inkscape:version="1.3 (0e150ed6c4, 2023-07-21)"
   xmlns:inkscape="http://www.inkscape.org/namespaces/inkscape"
   xmlns:sodipodi="http://sodipodi.sourceforge.net/DTD/sodipodi-0.dtd"
   xmlns="http://www.w3.org/2000/svg"
   xmlns:svg="http://www.w3.org/2000/svg"><defs
   id="defs5" /><sodipodi:namedview
   id="namedview5"
   pagecolor="#ffffff"
   bordercolor="#000000"
   borderopacity="0.25"
   inkscape:showpageshadow="2"
   inkscape:pageopacity="0.0"
   inkscape:pagecheckerboard="0"
   inkscape:deskcolor="#d1d1d1"
   inkscape:zoom="18.95"
   inkscape:cx="3.3773087"
   inkscape:cy="15.277045"
   inkscape:window-width="2560"
   inkscape:window-height="1351"
   inkscape:window-x="3831"
   inkscape:window-y="1115"
   inkscape:window-maximized="1"
   inkscape:current-layer="svg5" />&#10;<g
   id="g5"
   transform="translate(3.8441761,2.4195004)">&#10;<path
   d="m 9.174,19.771 c 0,-0.378 0.132,-0.738 0.355,-1.005 0.267,-0.321 0.636,-0.487 1.014,-0.487 h 9.905 c 0.378,0 0.747,0.166 1.014,0.487 0.223,0.267 0.355,0.627 0.355,1.005 v 0.743 c 0,0.575 -0.198,1.124 -0.537,1.531 -0.383,0.46 -0.909,0.705 -1.451,0.705 H 11.162 C 10.62,22.75 10.094,22.505 9.711,22.045 9.372,21.638 9.174,21.089 9.174,20.514 Z m 1.5,0.008 v 0.735 c 0,0.213 0.063,0.42 0.189,0.571 0.081,0.097 0.184,0.165 0.299,0.165 h 8.667 c 0.115,0 0.218,-0.068 0.299,-0.165 0.126,-0.151 0.189,-0.358 0.189,-0.571 v -0.735 z"
   id="path1" /><path
   d="M 9.603,16.35 V 15.8 c 0,-1.078 0.442,-2.112 1.234,-2.874 0.781,-0.752 1.84,-1.176 2.945,-1.176 h 3.428 c 1.105,0 2.163,0.424 2.945,1.176 0.791,0.762 1.234,1.796 1.234,2.874 v 0.55 c 0,0.348 -0.142,0.683 -0.398,0.929 -0.245,0.236 -0.577,0.371 -0.924,0.371 H 10.924 C 10.577,17.65 10.246,17.515 10,17.279 9.744,17.033 9.603,16.698 9.603,16.35 Z m 1.5,-0.2 h 8.786 V 15.8 c 0,-0.673 -0.28,-1.317 -0.775,-1.793 C 18.61,13.521 17.924,13.25 17.21,13.25 h -3.428 c -0.714,0 -1.4,0.271 -1.905,0.757 -0.494,0.476 -0.774,1.12 -0.774,1.793 z"
   id="path2" /><path
   d="m 7.5,21.25 c 0.414,0 0.75,0.336 0.75,0.75 0,0.414 -0.336,0.75 -0.75,0.75 H 5.263 C 3.98,22.75 2.877,21.705 2.761,20.298 L 1.76,8.177 C 1.699,7.436 1.928,6.702 2.384,6.153 2.865,5.573 3.549,5.25 4.262,5.25 h 8.476 c 0.713,0 1.397,0.323 1.878,0.903 0.456,0.549 0.685,1.283 0.624,2.024 l -0.155,1.885 c -0.035,0.412 -0.397,0.72 -0.81,0.685 C 13.863,10.713 13.556,10.351 13.59,9.938 L 13.745,8.053 C 13.774,7.709 13.674,7.366 13.462,7.111 13.275,6.886 13.015,6.75 12.738,6.75 H 4.262 C 3.985,6.75 3.725,6.886 3.538,7.111 3.326,7.366 3.226,7.709 3.255,8.053 l 1.001,12.122 c 0.049,0.591 0.468,1.075 1.007,1.075 z"
   id="path3" /><path
   d="M 8.75,6 C 8.75,6.414 8.414,6.75 8,6.75 7.586,6.75 7.25,6.414 7.25,6 V 3.677 C 7.25,3.575 7.188,3.483 7.093,3.445 L 5.221,2.696 C 4.837,2.543 4.65,2.106 4.804,1.721 4.957,1.337 5.394,1.15 5.779,1.304 L 7.65,2.052 c 0.664,0.266 1.1,0.909 1.1,1.625 z"
   id="path4" /><path
   d="m 21.5,16.15 c 0.414,0 0.75,0.336 0.75,0.75 0,0.414 -0.336,0.75 -0.75,0.75 h -12 c -0.414,0 -0.75,-0.336 -0.75,-0.75 0,-0.414 0.336,-0.75 0.75,-0.75 z"
   id="path5" /></g></svg>
